!!!COM: Bach, Johann Sebastian
!!!OPR: Joh. Seb. Bachs vierstimmige Choralgesänge
!!!XEN: Four-part Chorales
!!!OTL: Chorale 148. O Lamm Gottes, unschuldig
!!!SCT: BWV 401
!!!SCA: Thematisch-systematisches Verzeichnis der musikalischen Werke Johann Sebastian Bach: Bach-Werke-Verzeichnis (Schmieder)
!!!YOR: Bach Gesellschaft Edition xxxix
!!!ENC: Steven Rasmussen
!!!CDT: 1685/3//-1750/7/28/
!!!OCY: Deutschland
!!!YEC: Copyright (c) 1994, 2000 Center for Computer Assisted Research in the Humanities
!!!YEM: Rights to all derivative editions reserved
!!!YEN: United States of America
**kern	**kern	**silbe	**kern	**silbe	**kern	**silbe
*I:[BASSO]	*I:[TENORE]	*I:[TENORE]	*I:[ALTO]	*I:[ALTO]	*I:[SOPRANO]	*I:[SOPRANO]
*>[A,A,B]	*>[A,A,B]	*	*>[A,A,B]	*	*>[A,A,B]	*
*>A	*>A	*	*>A	*	*>A	*
*clefF4	*clefGv2	*	*clefG2	*	*clefG2	*
*k[b-]	*k[b-]	*	*k[b-]	*	*k[b-]	*
*F:	*F:	*	*F:	*	*F:	*
*M4/4	*M4/4	*	*M4/4	*	*M4/4	*
8FFL	8AL	.	4c	.	4f	Oall-
8GGJ	8B-J	.	.	.	.	.
=1	=1	=1	=1	=1	=1	=1
4AA	4c	.	16cLL	.	4f	Lamm-zeit
.	.	.	16dJ	.	.	.
.	.	.	8e-J	.	.	.
4BB-	8cL	.	8e-L	.	4f	Got-er-
.	16B-L	.	8dJ	.	.	.
.	16AJJ	.	.	.	.	.
4BB-	4G	.	8enL	.	4cc	-tes,-fund'n
.	.	.	8cJ	.	.	.
8AAL	4c	.	8fL	.	4cc	un-ge-
8GGJ	.	.	8eJ	.	.	.
=2	=2	=2	=2	=2	=2	=2
4FF	4c	.	4a	.	2dd	-schul--dul-
4GG	4Bn	.	8gL	.	.	.
.	.	.	8fJ	.	.	.
4C;	4G;	.	4e;	.	4cc;	-dig,-dig,
4AA	4A	.	4e	.	4cc	amwie-
=3	=3	=3	=3	=3	=3	=3
4D	4A	.	8eL	.	4f	Stamm-wohl
.	.	.	8dJ	.	.	.
4E	4G	.	8dL	.	4g	desdu
.	.	.	8cJ	.	.	.
8FL	4F	.	8cL	.	4a	Kreuz'warst
8EJ	.	.	16dL	.	.	.
.	.	.	16eJJ	.	.	.
8DL	8FL	.	4f	.	4b-	ge-ver-
8BB-J	8dJ	.	.	.	.	.
=4	=4	=4	=4	=4	=4	=4
4C	[4c	.	8fL	.	4a	-schlach--ach-
.	.	.	16eL	.	.	.
.	.	.	16dJJ	.	.	.
4CC	8.cL]	.	4e	.	8gL	.
.	.	.	.	.	8fJ	.
.	16B-Jk	.	.	.	.	.
4FF;	4A;	.	4c;	.	4f;	-tet,-tet;
=:|!	=:|!	=:|!	=:|!	=:|!	=:|!	=:|!
*>B	*>B	*	*>B	*	*>B	*
4F	4c	.	4f	.	4a	all'
=5	=5	=5	=5	=5	=5	=5
8FL	4c	.	4f	.	4a	SÃ¼nd'
8EJ	.	.	.	.	.	.
8DL	4d	.	4f	.	4a	hast
8CJ	.	.	.	.	.	.
4BBn	4d	.	4f	.	4g	du
4C#	4A	.	4e	.	4a	ge-
=6	=6	=6	=6	=6	=6	=6
8DL	8AL	.	8d	.	8fL	-tra-
8E	8G	.	4c	.	8eJ	.
8F	8A	.	.	.	4d	.
8GJ	16GL	.	8Bn	.	.	.
.	16FJJ	.	.	.	.	.
4C;	4E;	.	4G;	.	4c;	-gen,
4AA	4F	.	4e-	.	4cc	sonst
=7	=7	=7	=7	=7	=7	=7
4BB-	8FL	.	8dL	.	4dd	mÃ¼ss-
.	8GJ	.	8eJ	.	.	.
4F	8AL	.	8fL	.	4cc	-ten
.	8B-J	.	16gL	.	.	.
.	.	.	16aJJ	.	.	.
8FL	4c	.	4g	.	4cc	wir
8EJ	.	.	.	.	.	.
4F	8cL	.	4f	.	8aL	ver-
.	8dJ	.	.	.	8b-J	.
=8	=8	=8	=8	=8	=8	=8
8FL	4e-	.	4.a	.	4cc	-za-
8F#	.	.	.	.	.	.
8G	4d	.	.	.	4b-	.
8GGJ	.	.	8g	.	.	.
4D;	4d;	.	(8gL	.	4a;	-gen.
.	.	.	8f#;J)	.	.	.
8BB-L	8dL	.	4g	.	4dd	Er-
8BBnJ	8fJ	.	.	.	.	.
=9	=9	=9	=9	=9	=9	=9
4C	4e	.	4g	.	8ccL	-barm'
.	.	.	.	.	8b-J	.
4D	8eL	.	4f	.	4a	dich
.	8dJ	.	.	.	.	.
4E	8dL	.	4g	.	4g	un-
.	8cJ	.	.	.	.	.
4F	4c	.	8gL	.	4a	-ser,
.	.	.	16fL	.	.	.
.	.	.	16eJJ	.	.	.
=10	=10	=10	=10	=10	=10	=10
8AAL	8cL	o	4f	o	4cc	o
16BB-L	8A	.	.	.	.	.
16CJ	.	.	.	.	.	.
8D	8F	.	2f	Je-	4a	.
8CJ	8AJ	.	.	.	.	.
4BB-	4d	Je-	.	.	2g	Je-
4C	8cL	.	4e	.	.	.
.	8B-J	.	.	.	.	.
=11	=11	=11	=11	=11	=11	=11
2.FF;	2.A;	-su!	2.c;	-su!	2.f;	-su!
==|!	==|!	==|!	==|!	==|!	==|!	==|!
*-	*-	*-	*-	*-	*-	*-
!!!RWG: Key is interpreted using the Humdrum key tool.
!!!URL-pdf: https://s9.imslp.org/files/imglnks/usimg/7/7a/IMSLP04155-Bach_-_BGA_253-438.pdf#page=81 	Bach-Gesellschaft Ausgabe, Band 39 (pp.175-276) Leipzig: Breitkopf und Härtel, 1892. Plate B.W. XXXIX.
!!!END: 1994/07/27
!!!EMD: Converted from MuseData to Humdrum Dec 19, 2000, by Andreas Kornstaedt using muse2kern.
!!!EED: Craig Stuart Sapp
!!!EEV: 2024/03/31
!!!filter-keyboard: satb2gs
!!!title: @{OTL} (@{SCT})
